public/svg/laravel.svg

<svg width="187" height="192" viewBox="0 0 187 192" fill="none" xmlns="http://www.w3.org/2000/svg">
  <path
    d="M176.935 48.8966L177 49.6145V86.5532C177 87.4669 176.478 88.3806 175.696 88.8374L144.656 106.719V142.092C144.656 143.005 144.2 143.919 143.352 144.376L78.7302 181.576L78.2737 181.837L78.0781 181.902C77.6216 182.033 77.1652 182.033 76.7087 181.902L76.4479 181.837L76.0566 181.641L11.3694 144.441C10.5217 143.919 10 143.005 10 142.092V31.3409L10.0652 30.623L10.5217 29.7094L10.7825 29.383L11.0433 29.1873C11.1738 29.1873 11.239 29.0567 11.3694 28.9915L43.713 10.3916C44.5607 9.86947 45.6041 9.86947 46.3866 10.3916L78.7302 28.9262C78.8606 28.9262 78.9258 29.0567 78.991 29.122L79.3171 29.3178C79.3171 29.4483 79.4475 29.5788 79.5127 29.6441L79.7083 29.9051L79.9039 30.2967L79.9691 30.5578L80.0996 31.2104V100.389L106.966 84.9216V49.6145C106.966 49.3534 106.966 49.1577 107.096 48.9619L107.161 48.7008L107.357 48.244L107.553 48.0482L107.748 47.7219L108.074 47.5261L108.335 47.265L140.679 28.6651C141.461 28.2083 142.504 28.2083 143.287 28.6651L175.696 47.1998L176.022 47.4608L176.283 47.6566L176.544 47.9829L176.674 48.1787C176.804 48.3092 176.804 48.505 176.87 48.6356L177 48.8313L176.935 48.8966ZM171.588 84.9869V54.3134L160.307 60.8397L144.656 69.7807V100.454L171.588 84.9869ZM139.309 109.787L80.0996 143.658V174.658L139.309 140.526V109.787ZM15.4123 36.0398V140.526L74.6872 174.658V143.658L43.713 126.102L43.4522 125.841C43.3217 125.841 43.2565 125.776 43.1913 125.646L42.9305 125.385L42.7349 125.124L42.474 124.471V124.079L42.3436 123.753V51.5071L15.4775 35.9746L15.4123 36.0398ZM45.0824 15.8084L18.1511 31.4062L45.0824 46.8735L71.9485 31.4062L45.0824 15.8084ZM58.9719 112.658L74.622 103.652V35.9746L63.3409 42.5009L47.6907 51.5071V119.119L58.9719 112.593V112.658ZM141.983 34.082L115.052 49.6145L141.983 65.147L168.914 49.6145L141.983 34.082ZM139.309 69.7807L123.659 60.7744L112.378 54.2482V84.9216L139.309 100.519V69.7807ZM77.3608 138.959L116.877 116.444L136.57 105.153L109.704 89.6206L78.7302 107.503L50.4947 123.753L77.3608 138.959Z"
    fill="#00D0FF" />
</svg>

<svg xmlns="http://www.w3.org/2000/svg" width="187" height="192" fill="none" viewBox="0 0 187 192"><path fill="#00d0ff" d="m176.935 48.897.065.718v36.938c0 .914-.522 1.828-1.304 2.284l-31.04 17.882v35.373c0 .913-.456 1.827-1.304 2.284l-64.622 37.2-.456.261-.196.065a2.44 2.44 0 0 1-1.37 0l-.26-.065-.391-.196-64.688-37.2c-.847-.522-1.369-1.436-1.369-2.349V31.341l.065-.718.457-.914.26-.326.261-.196c.13 0 .196-.13.326-.196l32.344-18.6c.848-.522 1.891-.522 2.674 0L78.73 28.927c.13 0 .196.13.261.196l.326.196c0 .13.13.26.196.326l.195.261.196.392.065.26.13.653v69.179l26.867-15.467V49.615c0-.262 0-.457.13-.653l.065-.261.196-.457.196-.196.195-.326.326-.196.261-.261 32.344-18.6a2.65 2.65 0 0 1 2.608 0L175.696 47.2l.326.26.261.197.261.326.13.196c.13.13.13.326.196.457l.13.195zm-5.347 36.09V54.313l-11.281 6.527-15.651 8.94v30.674zm-32.279 24.8-59.21 33.871v31l59.21-34.132zM15.412 36.04v104.486l59.275 34.132v-31l-30.974-17.556-.26-.261c-.131 0-.197-.065-.262-.195l-.26-.261-.196-.261-.261-.653v-.392l-.13-.326V51.507L15.477 35.975zm29.67-20.232-26.93 15.598 26.93 15.468 26.866-15.468zm13.89 96.85 15.65-9.006V35.975L63.341 42.5l-15.65 9.006v67.612l11.28-6.526zm83.011-78.576-26.931 15.532 26.931 15.533 26.931-15.533zm-2.674 35.699-15.65-9.007-11.281-6.526v30.674l26.931 15.597zm-61.948 69.178 39.516-22.515 19.693-11.291-26.866-15.532-30.974 17.882-28.235 16.25z"/></svg>
